!!!COM: des Prez, Josquin
!!!CDT: ~1450-1521/08/27
!!!COA: Ockeghem, Johannes
!!!OPR: Missa Gaudeamus
!!!ONM: 5
!!!OTL: Agnus dei
!!!CDT: ~1450-1521/08/27
!!!COA: Ockeghem, Johannes
!!!OPR: Missa Gaudeamus
!!!ONM: 5
!!!OTL: Agnus dei
!!!AGN: Mass; Agnus dei
!!!SCT: NJE 4.2
!!!SCA: New Josquin Edition 4.2
!!!voices: 4
!!!voices-OPR: 4
**kern	**text	**kern	**text	**kern	**text	**kern	**text	**kern	**text
*staff5	*	*staff4	*	*staff3	*	*staff2	*	*staff1	*
*I"Bassus	*	*I"Tenor	*	*I"Altus	*	*I"Superius2	*	*I"Superius	*
*I'B	*	*I'T	*	*I'A	*	*I'S2	*	*I'S	*
*>[A,B,C]	*	*>[A,B,C]	*	*>[A,B,C]	*	*>[A,B,C]	*	*>[A,B,C]	*
*>Agnus1[A]	*	*>Agnus1[A]	*	*>Agnus1[A]	*	*>Agnus1[A]	*	*>Agnus1[A]	*
*>Agnus2[B]	*	*>Agnus2[B]	*	*>Agnus2[B]	*	*>Agnus2[B]	*	*>Agnus2[B]	*
*>Agnus3[C]	*	*>Agnus3[C]	*	*>Agnus3[C]	*	*>Agnus3[C]	*	*>Agnus3[C]	*
*>A	*	*>A	*	*>A	*	*>A	*	*>A	*
*clefF4	*	*clefGv2	*	*clefGv2	*	*clefG2	*	*clefG2	*
*k[]	*	*k[]	*	*k[]	*	*k[]	*	*k[]	*
*M3/1	*	*M3/1	*	*M3/1	*	*M3/1	*	*M3/1	*
*met(O)	*	*met(O)	*	*met(O)	*	*met(O)	*	*met(O)	*
!!!OMD: Agnus dei I
!!section: Agnue dei I
=1-	=1-	=1-	=1-	=1-	=1-	=1-	=1-	=1-	=1-
1G	A-	0.r	.	0.r	.	0.r	.	0.r	.
1A	.	.	.	.	.	.	.	.	.
1A	-gnus	.	.	.	.	.	.	.	.
=2	=2	=2	=2	=2	=2	=2	=2	=2	=2
2r	.	0.r	.	1G	A-	0.r	.	0.r	.
2E\	de-	.	.	.	.	.	.	.	.
2.F\	.	.	.	1A	.	.	.	.	.
4E\	.	.	.	.	.	.	.	.	.
1F	.	.	.	1A	-gnus,	.	.	.	.
=3	=3	=3	=3	=3	=3	=3	=3	=3	=3
2E\	.	0.r	.	2r	.	0.r	.	0.r	.
2C/	.	.	.	2e\	de-	.	.	.	.
2D\	.	.	.	2f\	.	.	.	.	.
1E	.	.	.	2e\	.	.	.	.	.
.	.	.	.	1f	.	.	.	.	.
2D\	.	.	.	.	.	.	.	.	.
=4	=4	=4	=4	=4	=4	=4	=4	=4	=4
2E\	.	0.r	.	2e\	.	0.r	.	0.r	.
1F	.	.	.	2c\	.	.	.	.	.
.	.	.	.	2d\	.	.	.	.	.
2E\	.	.	.	1e	.	.	.	.	.
1F	.	.	.	.	.	.	.	.	.
.	.	.	.	2d\	.	.	.	.	.
=5	=5	=5	=5	=5	=5	=5	=5	=5	=5
1E	-i,	1G	A-	2e\	.	0.r	.	0.r	.
.	.	.	.	2c\	.	.	.	.	.
2D\	a-	1A	.	2d\	.	.	.	.	.
2C/	-gnus	.	.	2e\	.	.	.	.	.
1D	de-	1A	-gnus	1f	.	.	.	.	.
=6	=6	=6	=6	=6	=6	=6	=6	=6	=6
1E	-i,	2r	.	1e	-i,	0.r	.	1g	A-
.	.	2e\	de-	.	.	.	.	.	.
1r	.	2f\	.	2d\	a-	.	.	1a	.
.	.	2e\	.	2c\	-gnus	.	.	.	.
1r	.	1f	.	1d	de-	.	.	1a	-gnus
=7	=7	=7	=7	=7	=7	=7	=7	=7	=7
0.r	.	2e\	.	1A	i,	0.r	.	2r	.
.	.	2c\	.	.	.	.	.	2ee\	de-
.	.	2d\	.	1r	.	.	.	2ff\	.
.	.	1e	.	.	.	.	.	2ee\	.
.	.	.	.	1d	qui	.	.	1ff	.
.	.	2d\	.	.	.	.	.	.	.
=8	=8	=8	=8	=8	=8	=8	=8	=8	=8
1r	.	2e\	-i,	2c\	tol-	0.r	.	2ee\	.
.	.	1f	qui	2A/	.	.	.	2cc\	.
1r	.	.	.	2B\	.	.	.	2dd\	.
.	.	2e\	.	2c\	.	.	.	1ee	.
1D	qui	1f	tol-	1d	.	.	.	.	.
.	.	.	.	.	.	.	.	2dd\	.
=9	=9	=9	=9	=9	=9	=9	=9	=9	=9
1A	tol-	0e	-lis,	2.c\	.	0.r	.	0ee	-i
.	.	.	.	8B/L	.	.	.	.	.
.	.	.	.	8A/J	.	.	.	.	.
2G\	.	.	.	2B\	.	.	.	.	.
2.A\	.	.	.	2A/	.	.	.	.	.
.	.	1r	.	1e	-lis,	.	.	2r	.
4G\	.	.	.	.	.	.	.	.	.
2E\	.	.	.	.	.	.	.	2g/	qui
=10	=10	=10	=10	=10	=10	=10	=10	=10	=10
2F\	.	0.r	.	2A/	tol-	0.r	.	2a/	tol-
2E\	.	.	.	2e\	.	.	.	2g/	.
2F\	-lis	.	.	2d\	-lis	.	.	2a/	-lis
2G\	pec-	.	.	2B\	pec-	.	.	2b\	pec-
2C/	-ca-	.	.	1e	-ca-	.	.	2cc\	-ca-
[2G\	-ta,	.	.	.	.	.	.	2b\	.
=11	=11	=11	=11	=11	=11	=11	=11	=11	=11
2G\]	.	0.r	.	2d\	-ta,	0.r	.	2dd\	-ta,
2E\	qui	.	.	2e\	qui	.	.	2g/	qui
2F\	tol-	.	.	2A/	tol-	.	.	2a/	tol-
2E\	.	.	.	2e\	.	.	.	2g/	.
2F\	-lis	.	.	2.d\	-lis	.	.	2a/	-lis
2G\	pec-	.	.	.	.	.	.	2b\	pec-
.	.	.	.	4B\	.	.	.	.	.
=12	=12	=12	=12	=12	=12	=12	=12	=12	=12
2E\	-ca-	0.r	.	2e\	.	0.r	.	2cc\	-ca-
2G\	.	.	.	2d\	pec-	.	.	2b\	.
2F\	-ta	.	.	2.f\	-ca-	.	.	2dd\	-ta
1A	mun-	.	.	.	.	.	.	2.cc\	mun-
.	.	.	.	4e\	.	.	.	.	.
.	.	.	.	2c\	.	.	.	.	.
.	.	.	.	.	.	.	.	4b\	.
2D\	.	.	.	2d\	-ta	.	.	[2a/	.
=13	=13	=13	=13	=13	=13	=13	=13	=13	=13
1E	.	[0.e	mi-	1B	mun-	0.r	.	2a/]	.
.	.	.	.	.	.	.	.	2g/	.
2AA/	-di,	.	.	2c\	-di,	.	.	2a/	-di,
2E\	.	.	.	2B\	.	.	.	2g/	.
2r	.	.	.	2r	.	.	.	2r	.
2E\	pec-	.	.	2B\	pec-	.	.	2g/	pec-
=14	=14	=14	=14	=14	=14	=14	=14	=14	=14
2AA/	-ca-	0.e]	.	2c\	-ca-	0.r	.	2a/	-ca-
2E\	.	.	.	2B\	.	.	.	2g/	.
2AA/	.	.	.	2c\	.	.	.	2a/	.
2.E\	.	.	.	2B\	.	.	.	2b\	-ta
.	.	.	.	1B	-ta	.	.	2.g/	mun-
4F\	.	.	.	.	.	.	.	.	.
2G\	-ta	.	.	.	.	.	.	.	.
.	.	.	.	.	.	.	.	4e/	.
=15	=15	=15	=15	=15	=15	=15	=15	=15	=15
1.A	mun-	[0.e	-se-	0.c	mun-	0.r	.	2e/	-di,
.	.	.	.	.	.	.	.	2cc\	mun-
.	.	.	.	.	.	.	.	2a/	.
2AA/	.	.	.	.	.	.	.	2.cc\	.
1AA	-di,	.	.	.	.	.	.	.	.
.	.	.	.	.	.	.	.	4b\	.
.	.	.	.	.	.	.	.	2a/	.
=16	=16	=16	=16	=16	=16	=16	=16	=16	=16
1.E	mun-	0.e]	.	2.B\	.	0.r	.	0.g	-di,
.	.	.	.	4A/	.	.	.	.	.
.	.	.	.	2B\	.	.	.	.	.
2C/	.	.	.	2c\	.	.	.	.	.
1C	-di,	.	.	2G/	.	.	.	.	.
.	.	.	.	2c\	.	.	.	.	.
=17	=17	=17	=17	=17	=17	=17	=17	=17	=17
1G	mun-	[0.d	.	2B\	.	0.r	.	0.r	.
.	.	.	.	2G/	.	.	.	.	.
2F\	.	.	.	2A/	.	.	.	.	.
2.G\	.	.	.	2.B-\	.	.	.	.	.
4F\	.	.	.	4A/	.	.	.	.	.
2D\	-di,	.	.	2F/	.	.	.	.	.
=18	=18	=18	=18	=18	=18	=18	=18	=18	=18
2.B-\	mun-	0d]	.	2G/	-di,	0.r	.	0.r	.
.	.	.	.	1B-i	mun-	.	.	.	.
4A\	.	.	.	.	.	.	.	.	.
2G\	.	.	.	.	.	.	.	.	.
2F\	.	.	.	1A	.	.	.	.	.
1E	.	1c	-re-	.	.	.	.	.	.
.	.	.	.	2G/	.	.	.	.	.
=19	=19	=19	=19	=19	=19	=19	=19	=19	=19
2D\	di,	[0.d	-re	2A/	.	0.r	.	0.r	.
2.G\	mun-	.	.	2.B-i\	.	.	.	.	.
4F\	.	.	.	4A/	.	.	.	.	.
4G\	.	.	.	2B-i\	.	.	.	.	.
4A\	.	.	.	.	.	.	.	.	.
2B-i\	.	.	.	2G/	.	.	.	.	.
2G\	.	.	.	2B-i\	.	.	.	.	.
=20	=20	=20	=20	=20	=20	=20	=20	=20	=20
2D\	-di,	0.d]	.	2A/	-di,	0.r	.	0.r	.
2.G\	mi-	.	.	2.Bni\	mi-	.	.	.	.
4A\	.	.	.	4c\	.	.	.	.	.
4Bni\	.	.	.	2d\	.	.	.	.	.
4c\	.	.	.	.	.	.	.	.	.
2d\	.	.	.	2G/	.	.	.	.	.
2B\	-se-	.	.	2d\	-se-	.	.	.	.
=21	=21	=21	=21	=21	=21	=21	=21	=21	=21
2c\	-re-	0g	no-	2.e\	-re-	0.r	.	1r	.
1G	.	.	.	.	.	.	.	.	.
.	.	.	.	4d\	.	.	.	.	.
.	.	.	.	2B\	-re	.	.	1r	.
2E\	-re	.	.	1c	no-	.	.	.	.
1D	no-	1f	.	.	.	.	.	1dd	mi-
.	.	.	.	2B\	.	.	.	.	.
=22	=22	=22	=22	=22	=22	=22	=22	=22	=22
1C	-bis,	1e	.	2.c\	.	0.r	.	2.ee\	.
.	.	.	.	4B\	.	.	.	4dd\	.
1r	.	2d\	.	2G/	.	.	.	2b\	-se-
.	.	2c\	.	2A/	.	.	.	1cc	-re-
1G	mi-	1d	.	2G/	-bis,	.	.	.	.
.	.	.	.	[2g\	no-	.	.	2b\	.
=23	=23	=23	=23	=23	=23	=23	=23	=23	=23
2E\	-se-	0e	-bis,	2g\]	.	0.r	.	1.cc	-re
1A	-re-	.	.	2c\	.	.	.	.	.
.	.	.	.	2A/	.	.	.	.	.
2G\	-re	.	.	2B\	.	.	.	2b\	.
2.F\	no-	1f	no-	[1c	-bis,	.	.	1a	.
4E\	.	.	.	.	.	.	.	.	.
=24	=24	=24	=24	=24	=24	=24	=24	=24	=24
2C/	-bis,	2e\	.	1c]	.	0.r	.	2g/	no-
1F	no-	1f	.	.	.	.	.	1a	.
.	.	.	.	1r	.	.	.	.	.
2G\	.	2e\	.	.	.	.	.	2g/	.
2A\	.	1f	.	2r	.	.	.	4f/	.
.	.	.	.	.	.	.	.	4e/	.
2B\	.	.	.	2d\	no-	.	.	2d/	.
=25	=25	=25	=25	=25	=25	=25	=25	=25	=25
2c\	-bis,	[0.el	-bis.	2e\	.	0.r	.	1c	-bis,
2C/	no-	.	.	2.g\	.	.	.	.	.
2.c\	.	.	.	.	.	.	.	2r	.
.	.	.	.	4f\	.	.	.	.	.
.	.	.	.	4e\	.	.	.	2g/	no-
4B\	.	.	.	4d\	.	.	.	.	.
4A\	.	.	.	4c\	.	.	.	4a/	.
4G\	.	.	.	4B\	.	.	.	4b\	.
2A\	.	.	.	2A/	.	.	.	2cc\	.
=26	=26	=26	=26	=26	=26	=26	=26	=26	=26
2E\	.	0.e_	.	2G/	-bis,	0.r	.	4b\	.
.	.	.	.	.	.	.	.	4g/	.
2A\	.	.	.	2c\	.	.	.	2a/	.
4G\	.	.	.	2r	.	.	.	4b\	.
4F\	.	.	.	.	.	.	.	4a/	.
4E\	.	.	.	2.g\	no-	.	.	4g/	.
4D\	.	.	.	.	.	.	.	4f/	.
1C	-bis,	.	.	.	.	.	.	4e/	.
.	.	.	.	4f\	.	.	.	4d/	.
.	.	.	.	4e\	.	.	.	4c/	.
.	.	.	.	4d\	.	.	.	4B/	.
=27	=27	=27	=27	=27	=27	=27	=27	=27	=27
2.c\	no-	0.e_	.	4c\	.	0.r	.	2A/	-bis,
.	.	.	.	4B\	.	.	.	.	.
.	.	.	.	4A/	.	.	.	2.cc\	no-
4B\	.	.	.	4G/	.	.	.	.	.
4A\	.	.	.	2A/	.	.	.	.	.
4G\	.	.	.	.	.	.	.	4b\	.
2A\	.	.	.	2c\	.	.	.	1a	.
1E	.	.	.	1B	.	.	.	.	.
.	.	.	.	.	.	.	.	2g#i/	.
=28	=28	=28	=28	=28	=28	=28	=28	=28	=28
0.AAl	-bis.	0.e]	.	0.Al	-bis.	0.r	.	0.al	-bis.
!!LO:LB:i:g=z
=29||	=29||	=29||	=29||	=29||	=29||	=29||	=29||	=29||	=29||
*>B	*	*>B	*	*>B	*	*>B	*	*>B	*
*clefF4	*	*clefGv2	*	*clefGv2	*	*clefG2	*	*clefG2	*
*k[]	*	*k[]	*	*k[]	*	*k[]	*	*k[]	*
*M2/1	*	*M2/1	*	*M2/1	*	*M2/1	*	*M2/1	*
*met(C|)	*	*met(C|)	*	*met(C|)	*	*met(C|)	*	*met(C|)	*
!!section: Agnus dei II
!!!OMD: Agnus dei II
!	!	!	!	!	!	!	!	!LO:TX:Z=6:X=-20:t=Canon at the unison	!
0r	.	0r	.	0r	.	0r	.	1e	A-
.	.	.	.	.	.	.	.	[1g	.
=30	=30	=30	=30	=30	=30	=30	=30	=30	=30
0r	.	0r	.	0r	.	0r	.	2g/]	.
.	.	.	.	.	.	.	.	2a/	-gnus
.	.	.	.	.	.	.	.	2b\	de-
.	.	.	.	.	.	.	.	[2cc\	.
=31	=31	=31	=31	=31	=31	=31	=31	=31	=31
0r	.	0r	.	0r	.	1e	A-	2cc\]	.
.	.	.	.	.	.	.	.	4b\	.
.	.	.	.	.	.	.	.	4a/	.
.	.	.	.	.	.	[1g	.	1b	.
=32	=32	=32	=32	=32	=32	=32	=32	=32	=32
0r	.	0r	.	0r	.	2g/]	.	[0e	-i,
.	.	.	.	.	.	2a/	-gnus	.	.
.	.	.	.	.	.	2b\	de-	.	.
.	.	.	.	.	.	[2cc\	.	.	.
=33	=33	=33	=33	=33	=33	=33	=33	=33	=33
0r	.	0r	.	0r	.	2cc\]	.	0e]	.
.	.	.	.	.	.	4b\	.	.	.
.	.	.	.	.	.	4a/	.	.	.
.	.	.	.	.	.	1b	.	.	.
=34	=34	=34	=34	=34	=34	=34	=34	=34	=34
0r	.	0r	.	0r	.	[0e	-i,	1b	a-
.	.	.	.	.	.	.	.	2cc\	-gnus
.	.	.	.	.	.	.	.	[2b\	de-
=35	=35	=35	=35	=35	=35	=35	=35	=35	=35
0r	.	0r	.	0r	.	0e]	.	2b\]	.
.	.	.	.	.	.	.	.	2g/	.
.	.	.	.	.	.	.	.	1g	-i,
=36	=36	=36	=36	=36	=36	=36	=36	=36	=36
0r	.	0r	.	0r	.	1b	a-	2r	.
.	.	.	.	.	.	.	.	2g/	a-
.	.	.	.	.	.	2cc\	-gnus	2c/	-gnus
.	.	.	.	.	.	[2b\	de-	[2g/	de-
=37	=37	=37	=37	=37	=37	=37	=37	=37	=37
0r	.	0r	.	0r	.	2b\]	.	2g/]	.
.	.	.	.	.	.	2g/	.	2e/	.
.	.	.	.	.	.	1g	-i,	1e	-i,
=38	=38	=38	=38	=38	=38	=38	=38	=38	=38
0r	.	0r	.	0r	.	2r	.	1b	qui
.	.	.	.	.	.	2g/	a-	.	.
.	.	.	.	.	.	2c/	-gnus	2cc\	tol-
.	.	.	.	.	.	[2g/	de-	[2b\	.
=39	=39	=39	=39	=39	=39	=39	=39	=39	=39
0r	.	0r	.	0r	.	2g/]	.	4b\]	.
.	.	.	.	.	.	.	.	4a/	.
.	.	.	.	.	.	2e/	.	2b\	.
.	.	.	.	.	.	1e	-i,	2cc\	.
.	.	.	.	.	.	.	.	2b\	.
=40	=40	=40	=40	=40	=40	=40	=40	=40	=40
0r	.	0r	.	0r	.	1b	qui	1g	-lis,
.	.	.	.	.	.	2cc\	tol-	1r	.
.	.	.	.	.	.	[2b\	.	.	.
=41	=41	=41	=41	=41	=41	=41	=41	=41	=41
0r	.	0r	.	0r	.	4b\]	.	1dd	qui
.	.	.	.	.	.	4a/	.	.	.
.	.	.	.	.	.	2b\	.	.	.
.	.	.	.	.	.	2cc\	.	2ee\	tol-
.	.	.	.	.	.	2b\	.	[2dd\	.
=42	=42	=42	=42	=42	=42	=42	=42	=42	=42
0r	.	0r	.	0r	.	1g	-lis,	4dd\]	.
.	.	.	.	.	.	.	.	4cc\	.
.	.	.	.	.	.	.	.	2dd\	.
.	.	.	.	.	.	1r	.	2ee\	.
.	.	.	.	.	.	.	.	[2dd\	.
=43	=43	=43	=43	=43	=43	=43	=43	=43	=43
0r	.	0r	.	0r	.	1dd	qui	2dd\]	.
.	.	.	.	.	.	.	.	4cc\	.
.	.	.	.	.	.	.	.	4b\	.
.	.	.	.	.	.	2ee\	tol-	2cc\	.
.	.	.	.	.	.	[2dd\	.	2dd\	.
=44	=44	=44	=44	=44	=44	=44	=44	=44	=44
0r	.	0r	.	0r	.	4dd\]	.	1g	-lis,
.	.	.	.	.	.	4cc\	.	.	.
.	.	.	.	.	.	2dd\	.	.	.
.	.	.	.	.	.	2ee\	.	1r	.
.	.	.	.	.	.	[2dd\	.	.	.
=45	=45	=45	=45	=45	=45	=45	=45	=45	=45
0r	.	0r	.	0r	.	2dd\]	.	1dd	qui
.	.	.	.	.	.	4cc\	.	.	.
.	.	.	.	.	.	4b\	.	.	.
.	.	.	.	.	.	2cc\	.	2ee\	tol-
.	.	.	.	.	.	2dd\	.	[2dd\	.
=46	=46	=46	=46	=46	=46	=46	=46	=46	=46
0r	.	0r	.	0r	.	1g	-lis,	2dd\]	.
.	.	.	.	.	.	.	.	4cc\	.
.	.	.	.	.	.	.	.	4b\	.
.	.	.	.	.	.	1r	.	2cc\	.
.	.	.	.	.	.	.	.	2dd\	.
=47	=47	=47	=47	=47	=47	=47	=47	=47	=47
0r	.	0r	.	0r	.	1dd	qui	1.g	lis
.	.	.	.	.	.	2ee\	tol-	.	.
.	.	.	.	.	.	[2dd\	.	2f/	pec-
=48	=48	=48	=48	=48	=48	=48	=48	=48	=48
0r	.	0r	.	0r	.	2dd\]	.	1g	-ca-
.	.	.	.	.	.	4cc\	.	.	.
.	.	.	.	.	.	4b\	.	.	.
.	.	.	.	.	.	2cc\	.	2a/	-ta
.	.	.	.	.	.	2dd\	.	[2g/	mun-
=49	=49	=49	=49	=49	=49	=49	=49	=49	=49
0r	.	0r	.	0r	.	1.g	lis	4g/]	.
.	.	.	.	.	.	.	.	4f/	.
.	.	.	.	.	.	.	.	1e	.
.	.	.	.	.	.	2f/	pec-	2d/	.
=50	=50	=50	=50	=50	=50	=50	=50	=50	=50
0r	.	0r	.	0r	.	1g	-ca-	2e/	-di,
.	.	.	.	.	.	.	.	2b\	pec-
.	.	.	.	.	.	2a/	-ta	2cc\	-ca-
.	.	.	.	.	.	[2g/	mun-	2b\	-ta
=51	=51	=51	=51	=51	=51	=51	=51	=51	=51
0r	.	0r	.	0r	.	4g/]	.	1e	mun-
.	.	.	.	.	.	4f/	.	.	.
.	.	.	.	.	.	1e	.	.	.
.	.	.	.	.	.	.	.	1f	.
.	.	.	.	.	.	2d/	.	.	.
=52	=52	=52	=52	=52	=52	=52	=52	=52	=52
0r	.	0r	.	0r	.	2e/	-di,	2e/	-di,
.	.	.	.	.	.	2b\	pec-	2g/	mun-
.	.	.	.	.	.	2cc\	-ca-	2c/	.
.	.	.	.	.	.	2b\	-ta	[2g/	.
=53	=53	=53	=53	=53	=53	=53	=53	=53	=53
0r	.	0r	.	0r	.	1e	mun-	2g/]	.
.	.	.	.	.	.	.	.	4f/	.
.	.	.	.	.	.	.	.	4e/	.
.	.	.	.	.	.	1f	.	1d	.
=54	=54	=54	=54	=54	=54	=54	=54	=54	=54
0r	.	0r	.	0r	.	2e/	-di,	1c	-di,
.	.	.	.	.	.	2g/	mun-	.	.
.	.	.	.	.	.	2c/	.	[1g	mi-
.	.	.	.	.	.	[2g/	.	.	.
=55	=55	=55	=55	=55	=55	=55	=55	=55	=55
0r	.	0r	.	0r	.	2g/]	.	2g/]	.
.	.	.	.	.	.	4f/	.	2a/	-se-
.	.	.	.	.	.	4e/	.	.	.
.	.	.	.	.	.	1d	.	1b	-re-
=56	=56	=56	=56	=56	=56	=56	=56	=56	=56
0r	.	0r	.	0r	.	1c	-di,	1cc	.
.	.	.	.	.	.	[1g	mi-	1b	-re
=57	=57	=57	=57	=57	=57	=57	=57	=57	=57
0r	.	0r	.	0r	.	2g/]	.	2e/	no-
.	.	.	.	.	.	2a/	-se-	2f/	.
.	.	.	.	.	.	1b	-re-	2g/	.
.	.	.	.	.	.	.	.	[2e/	.
=58	=58	=58	=58	=58	=58	=58	=58	=58	=58
0r	.	0r	.	0r	.	1cc	.	2e/]	.
.	.	.	.	.	.	.	.	2c/	.
.	.	.	.	.	.	1b	-re	2d/	.
.	.	.	.	.	.	.	.	[2e/	.
=59	=59	=59	=59	=59	=59	=59	=59	=59	=59
0r	.	0r	.	0r	.	2e/	no-	4e/]	.
.	.	.	.	.	.	.	.	4c/	.
.	.	.	.	.	.	2f/	.	2d/	.
.	.	.	.	.	.	2g/	.	1e	-bis,
.	.	.	.	.	.	[2e/	.	.	.
=60	=60	=60	=60	=60	=60	=60	=60	=60	=60
0r	.	0r	.	0r	.	2e/]	.	2A/	no-
.	.	.	.	.	.	2c/	.	2e/	.
.	.	.	.	.	.	2d/	.	2f/	.
.	.	.	.	.	.	[2e/	.	2g/	.
=61	=61	=61	=61	=61	=61	=61	=61	=61	=61
0r	.	0r	.	0r	.	4e/]	.	2e/	.
.	.	.	.	.	.	4c/	.	.	.
.	.	.	.	.	.	2d/	.	1a	.
.	.	.	.	.	.	1e	-bis,	.	.
.	.	.	.	.	.	.	.	2g/	.
=62	=62	=62	=62	=62	=62	=62	=62	=62	=62
0r	.	0r	.	0r	.	2A/	no-	1.cc	.
.	.	.	.	.	.	2e/	.	.	.
.	.	.	.	.	.	2f/	.	.	.
.	.	.	.	.	.	2g/	.	2b\	.
=63	=63	=63	=63	=63	=63	=63	=63	=63	=63
0r	.	0r	.	0r	.	2e/	.	2.cc\	.
.	.	.	.	.	.	1a	.	.	.
.	.	.	.	.	.	.	.	4b\	.
.	.	.	.	.	.	.	.	2cc\	.
.	.	.	.	.	.	2g/	.	[2b\	.
=64	=64	=64	=64	=64	=64	=64	=64	=64	=64
0r	.	0r	.	0r	.	1.cc	.	4b\]	.
.	.	.	.	.	.	.	.	4a/	.
.	.	.	.	.	.	.	.	1a	.
.	.	.	.	.	.	2b\	.	2g/	.
=65	=65	=65	=65	=65	=65	=65	=65	=65	=65
0r	.	0r	.	0r	.	2.cc\	.	3a/VN	.
.	.	.	.	.	.	.	.	3f/	.
.	.	.	.	.	.	.	.	3g/Z	.
.	.	.	.	.	.	4b\	.	.	.
.	.	.	.	.	.	2cc\	.	3e/V	.
.	.	.	.	.	.	.	.	3c/	.
.	.	.	.	.	.	[2b\	.	.	.
.	.	.	.	.	.	.	.	3d/Z	.
=66	=66	=66	=66	=66	=66	=66	=66	=66	=66
0r	.	0r	.	0r	.	4b\]	.	3%2eV	.
.	.	.	.	.	.	4a/	.	.	.
.	.	.	.	.	.	1a	.	.	.
.	.	.	.	.	.	.	.	3c/Z	.
.	.	.	.	.	.	.	.	3d/V	.
.	.	.	.	.	.	.	.	3%2BZ	.
.	.	.	.	.	.	2g#i/	.	.	.
=67	=67	=67	=67	=67	=67	=67	=67	=67	=67
!	!	!	!	!	!	!LO:N:vis=2	!	!	!
0r	.	0r	.	0r	.	0aN	-bis.	0Al	-bis.
!!LO:LB:i:g=z
=68||	=68||	=68||	=68||	=68||	=68||	=68||	=68||	=68||	=68||
*>C	*	*>C	*	*>C	*	*>C	*	*>C	*
*clefF4	*	*clefGv2	*	*clefGv2	*	*clefG2	*	*clefG2	*
*k[]	*	*k[]	*	*k[]	*	*k[]	*	*k[]	*
*M2/1	*	*M2/1	*	*M2/1	*	*M2/1	*	*M2/1	*
*met(C|)	*	*met(C|)	*	*met(C|)	*	*met(C|)	*	*met(C|)	*
!!section: Agnus dei III
!!!OMD: Agnus dei III
1E	A-	0G	A-	1r	.	0r	.	0r	.
1G	.	.	.	1B	A-	.	.	.	.
=69	=69	=69	=69	=69	=69	=69	=69	=69	=69
2F\	-gnus	1A	.	1d	.	0r	.	0r	.
2D\	.	.	.	.	.	.	.	.	.
1F	.	1A	-gnus	2c\	-gnus	.	.	.	.
.	.	.	.	2A/	.	.	.	.	.
=70	=70	=70	=70	=70	=70	=70	=70	=70	=70
1E	de-	0e	de-	1c	.	0r	.	0r	.
1G	.	.	.	1B	de-	.	.	.	.
=71	=71	=71	=71	=71	=71	=71	=71	=71	=71
2F\	.	0f	.	1d	.	0r	.	0r	.
2D\	.	.	.	.	.	.	.	.	.
2.F\	.	.	.	2c\	.	.	.	.	.
.	.	.	.	2A/	.	.	.	.	.
4E\	.	.	.	.	.	.	.	.	.
=72	=72	=72	=72	=72	=72	=72	=72	=72	=72
2.C/	.	0e	-i,	2.c\	.	0r	.	0r	.
4D\	.	.	.	4B\	.	.	.	.	.
4E\	.	.	.	2.G/	.	.	.	.	.
4F\	.	.	.	.	.	.	.	.	.
[2G\	.	.	.	.	.	.	.	.	.
.	.	.	.	4A/	.	.	.	.	.
=73	=73	=73	=73	=73	=73	=73	=73	=73	=73
2G\]	.	0r	.	4B\	.	0r	.	0r	.
.	.	.	.	4c\	.	.	.	.	.
2F\	.	.	.	2d\	.	.	.	.	.
2A\	.	.	.	2c\	.	.	.	.	.
2E\	.	.	.	[2g\	.	.	.	.	.
=74	=74	=74	=74	=74	=74	=74	=74	=74	=74
2G\	.	0r	.	4g\]	.	0r	.	0r	.
.	.	.	.	4f\	.	.	.	.	.
2A\	.	.	.	1e	.	.	.	.	.
1F	.	.	.	.	.	.	.	.	.
.	.	.	.	2d\	.	.	.	.	.
=75	=75	=75	=75	=75	=75	=75	=75	=75	=75
0E	-i,	0G	a-	0e	-i,	0r	.	0b	A-
=76	=76	=76	=76	=76	=76	=76	=76	=76	=76
0r	.	1A	.	0r	.	0r	.	1.cc	.
.	.	1A	-gnus	.	.	.	.	.	.
.	.	.	.	.	.	.	.	4b\	.
.	.	.	.	.	.	.	.	4a/	.
=77	=77	=77	=77	=77	=77	=77	=77	=77	=77
0r	.	0e	de-	0r	.	0r	.	2cc\	.
.	.	.	.	.	.	.	.	2b\	-gnus
.	.	.	.	.	.	.	.	[1ee	de-
=78	=78	=78	=78	=78	=78	=78	=78	=78	=78
0r	.	0f	.	0r	.	0r	.	1ee]	.
.	.	.	.	.	.	.	.	1dd	.
=79	=79	=79	=79	=79	=79	=79	=79	=79	=79
0C	a-	0e	-i,	1r	.	0r	.	0ee	-i,
.	.	.	.	1e	a-	.	.	.	.
=80	=80	=80	=80	=80	=80	=80	=80	=80	=80
1D	.	0r	.	1.f	.	0r	.	1a	a-
1D	-gnus	.	.	.	.	.	.	[1dd	.
.	.	.	.	4e\	.	.	.	.	.
.	.	.	.	4d\	.	.	.	.	.
=81	=81	=81	=81	=81	=81	=81	=81	=81	=81
0A	de-	0r	.	2f\	.	0r	.	1dd]	.
.	.	.	.	2e\	-gnus	.	.	.	.
.	.	.	.	1a	de-	.	.	1cc	-gnus
=82	=82	=82	=82	=82	=82	=82	=82	=82	=82
0B-i	.	0G	a-	2d\	.	0r	.	1.dd	de-
.	.	.	.	2.g\	.	.	.	.	.
.	.	.	.	4f\	.	.	.	.	.
.	.	.	.	4e\	.	.	.	4cc\	.
.	.	.	.	4d\	.	.	.	4b\	.
=83	=83	=83	=83	=83	=83	=83	=83	=83	=83
0A	-i,	1A	.	2f\	.	0r	.	1cc	.
.	.	.	.	2e\	.	.	.	.	.
.	.	1A	-gnus	[1c	-i,	.	.	2a/	.
.	.	.	.	.	.	.	.	[2cc\	.
=84	=84	=84	=84	=84	=84	=84	=84	=84	=84
0r	.	0e	de-	0c]	.	0r	.	2cc\]	.
.	.	.	.	.	.	.	.	4b\	.
.	.	.	.	.	.	.	.	4a/	.
.	.	.	.	.	.	.	.	2g/	.
.	.	.	.	.	.	.	.	[2a/	.
=85	=85	=85	=85	=85	=85	=85	=85	=85	=85
0D	a-	0f	.	2.d\	a-	0r	.	2a/]	.
.	.	.	.	.	.	.	.	2d/	.
.	.	.	.	4c\	.	.	.	.	.
.	.	.	.	2A/	.	.	.	1a	.
.	.	.	.	2d\	-gnus	.	.	.	.
=86	=86	=86	=86	=86	=86	=86	=86	=86	=86
1E	.	0e	-i,	2B\	de-	0r	.	1.g	.
.	.	.	.	2c\	.	.	.	.	.
1E	-gnus	.	.	2B\	.	.	.	.	.
.	.	.	.	2c\	.	.	.	4f/	.
.	.	.	.	.	.	.	.	4e/	.
=87	=87	=87	=87	=87	=87	=87	=87	=87	=87
0B	de-	0r	.	0G	-i,	0r	.	2g/	.
.	.	.	.	.	.	.	.	2f/	.
.	.	.	.	.	.	.	.	1d	.
=88	=88	=88	=88	=88	=88	=88	=88	=88	=88
0c	.	0r	.	0e	de-	0r	.	1c	-i,
.	.	.	.	.	.	.	.	2g/	a-
.	.	.	.	.	.	.	.	2a/	.
=89	=89	=89	=89	=89	=89	=89	=89	=89	=89
1B	-i,	0G	a-	1d	.	0r	.	1.b	-gnus
1E	a-	.	.	1e	.	.	.	.	.
.	.	.	.	.	.	.	.	[2cc\	de-
=90	=90	=90	=90	=90	=90	=90	=90	=90	=90
1F	.	1A	.	1.c	.	0r	.	2cc\]	.
.	.	.	.	.	.	.	.	4b\	.
.	.	.	.	.	.	.	.	4a/	.
1F	-gnus	1A	-gnus	.	.	.	.	2.cc\	.
.	.	.	.	4B\	.	.	.	.	.
.	.	.	.	4A/	.	.	.	4b\	.
=91	=91	=91	=91	=91	=91	=91	=91	=91	=91
2E\	de-	0e	de-	2c\	.	0r	.	0g	.
2.G\	.	.	.	2B\	.	.	.	.	.
.	.	.	.	1G	-i,	.	.	.	.
4F\	.	.	.	.	.	.	.	.	.
[2E\	.	.	.	.	.	.	.	.	.
=92	=92	=92	=92	=92	=92	=92	=92	=92	=92
2E\]	.	0f	.	1r	.	0r	.	0a	-i,
4D\	.	.	.	.	.	.	.	.	.
4C/	.	.	.	.	.	.	.	.	.
1D	.	.	.	1d	qui	.	.	.	.
=93	=93	=93	=93	=93	=93	=93	=93	=93	=93
0E	-i,	0e	-i,	2B\	tol-	0r	.	1r	.
.	.	.	.	2.g\	.	.	.	.	.
.	.	.	.	.	.	.	.	1g	qui
.	.	.	.	4f\	.	.	.	.	.
.	.	.	.	[2e\	.	.	.	.	.
=94	=94	=94	=94	=94	=94	=94	=94	=94	=94
0r	.	1f	qui	2e\]	.	0r	.	1a	tol-
.	.	.	.	4d\	.	.	.	.	.
.	.	.	.	4c\	.	.	.	.	.
.	.	1f	tol-	2d\	-lis	.	.	1a	-lis
.	.	.	.	2A/	.	.	.	.	.
=95	=95	=95	=95	=95	=95	=95	=95	=95	=95
0r	.	2e\	-lis	0c	pec-	0r	.	0ee	pec-
.	.	2.g\	pec-	.	.	.	.	.	.
.	.	4f\	.	.	.	.	.	.	.
.	.	[2e\	.	.	.	.	.	.	.
=96	=96	=96	=96	=96	=96	=96	=96	=96	=96
1r	.	2e\]	.	0F	.	0r	.	0ff	-ca-
.	.	4d\	.	.	.	.	.	.	.
.	.	4c\	.	.	.	.	.	.	.
1D	qui	2d\	.	.	.	.	.	.	.
.	.	[2A/	-ca-	.	.	.	.	.	.
=97	=97	=97	=97	=97	=97	=97	=97	=97	=97
1.A	tol-	4A/]	.	1.c	-ca-	0r	.	0ee	-ta,
.	.	4B\	.	.	.	.	.	.	.
.	.	4c\	.	.	.	.	.	.	.
.	.	4d\	.	.	.	.	.	.	.
.	.	2e\	.	.	.	.	.	.	.
2G\	.	2g\	-ta	2B\	.	.	.	.	.
=98	=98	=98	=98	=98	=98	=98	=98	=98	=98
1A	-lis	2f\	mun-	1c	.	0r	.	0r	.
.	.	2.e\	.	.	.	.	.	.	.
1G	pec-	.	.	1B	-ta	.	.	.	.
.	.	4d\	.	.	.	.	.	.	.
.	.	2g\	.	.	.	.	.	.	.
=99	=99	=99	=99	=99	=99	=99	=99	=99	=99
1A	-ca-	2f\	.	1c	mun-	0r	.	0r	.
.	.	1e	.	.	.	.	.	.	.
1F	.	.	.	1A	.	.	.	.	.
.	.	2d\	.	.	.	.	.	.	.
=100	=100	=100	=100	=100	=100	=100	=100	=100	=100
1E	-ta,	2e\	.	2B\	-di,	0r	.	0g	qui
.	.	2c\	.	2e\	pec-	.	.	.	.
2r	.	1B	-di,	2d\	.	.	.	.	.
2E\	pec-	.	.	2e\	.	.	.	.	.
=101	=101	=101	=101	=101	=101	=101	=101	=101	=101
4F\	-ca-	2.A/	pec-	2.c\	-ca-	0r	.	1a	tol-
4E\	.	.	.	.	.	.	.	.	.
4F\	.	.	.	.	.	.	.	.	.
4G\	.	4G/	.	4B\	.	.	.	.	.
2F\	.	4A/	.	4A/	.	.	.	1a	-lis
.	.	4B\	.	4G/	.	.	.	.	.
4E\	-ta	[2c\	-ca-	[2A/	.	.	.	.	.
4D\	.	.	.	.	.	.	.	.	.
=102	=102	=102	=102	=102	=102	=102	=102	=102	=102
2C/	mun-	2c\]	.	2A/]	.	0r	.	0ee	pec-
1D	.	4B\	.	4G/	.	.	.	.	.
.	.	4A/	.	4F/	.	.	.	.	.
.	.	1G	-ta	1E	-ta	.	.	.	.
2C#i/	.	.	.	.	.	.	.	.	.
=103	=103	=103	=103	=103	=103	=103	=103	=103	=103
0D	.	1F	mun-	4D/	mun-	0r	.	0ff	-ca-
.	.	.	.	4E/	.	.	.	.	.
.	.	.	.	4F/	.	.	.	.	.
.	.	.	.	4G/	.	.	.	.	.
.	.	1D	.	4A/	.	.	.	.	.
.	.	.	.	4B\	.	.	.	.	.
.	.	.	.	4c\	.	.	.	.	.
.	.	.	.	4d\	.	.	.	.	.
=104	=104	=104	=104	=104	=104	=104	=104	=104	=104
0AA	-di,	1A	-di,	2e\	.	0r	.	0ee	-ta,
.	.	.	.	1d	.	.	.	.	.
.	.	2r	.	.	.	.	.	.	.
.	.	2e\	mun-	2c#i\	.	.	.	.	.
=105	=105	=105	=105	=105	=105	=105	=105	=105	=105
1r	.	4f\	.	0d	-di,	0r	.	0r	.
.	.	4e\	.	.	.	.	.	.	.
.	.	4f\	.	.	.	.	.	.	.
.	.	4g\	.	.	.	.	.	.	.
1D	qui	2f\	.	.	.	.	.	.	.
.	.	4e\	.	.	.	.	.	.	.
.	.	4d\	.	.	.	.	.	.	.
=106	=106	=106	=106	=106	=106	=106	=106	=106	=106
1E	tol-	2c\	.	1r	.	0r	.	0g	pec-
.	.	1d	.	.	.	.	.	.	.
1E	-lis	.	.	1e	mun-	.	.	.	.
.	.	2c#i\	.	.	.	.	.	.	.
=107	=107	=107	=107	=107	=107	=107	=107	=107	=107
1D	pec-	2d\	.	4f\	.	0r	.	1a	-ca-
.	.	.	.	4e\	.	.	.	.	.
.	.	2A/	.	4f\	.	.	.	.	.
.	.	.	.	4g\	.	.	.	.	.
1F	-ca-	2d\	.	2f\	.	.	.	1a	-ta
.	.	[2c\	.	4e\	.	.	.	.	.
.	.	.	.	4d\	.	.	.	.	.
=108	=108	=108	=108	=108	=108	=108	=108	=108	=108
1E	-ta	2c\]	.	2c\	.	0r	.	0ee	mun-
.	.	2B\	.	1d	.	.	.	.	.
1E	mun-	1G	-di,	.	.	.	.	.	.
.	.	.	.	2c#i\	.	.	.	.	.
=109	=109	=109	=109	=109	=109	=109	=109	=109	=109
1D	-di,	2r	.	0d	-di,	0r	.	0ff	.
.	.	2A/	do-	.	.	.	.	.	.
2r	.	2B\	.	.	.	.	.	.	.
2D\	do-	2d\	.	.	.	.	.	.	.
=110	=110	=110	=110	=110	=110	=110	=110	=110	=110
*	*	*	*	*rscale:2	*	*	*	*	*
*	*	*	*	*M2/1	*	*	*	*	*
*	*	*	*	*met(2)	*	*	*	*	*
1A	-na	2c\	.	1r	.	0r	.	0ee	-di,
.	.	4B\	.	.	.	.	.	.	.
.	.	4A/	.	.	.	.	.	.	.
1AA	no-	2e\	.	1c	do-	.	.	.	.
.	.	[2A/	.	.	.	.	.	.	.
=111	=111	=111	=111	=111	=111	=111	=111	=111	=111
1D	-bis,	2A/]	.	2d	.	0r	.	2.a/	do-
.	.	1f	.	2d	-na	.	.	.	.
.	.	.	.	.	.	.	.	4b\	.
2r	.	.	.	1a	no-	.	.	2cc\	.
2D\	do-	4e\	.	.	.	.	.	[2dd\	.
.	.	4d\	.	.	.	.	.	.	.
=112	=112	=112	=112	=112	=112	=112	=112	=112	=112
1G	-na	1d	-na	1b-	.	0r	.	4dd\]	.
.	.	.	.	.	.	.	.	4cc\	.
.	.	.	.	.	.	.	.	4dd\	.
.	.	.	.	.	.	.	.	4ee\	.
1D	no-	2r	.	1a	-bis,	.	.	2ff\	.
.	.	2d\	do-	.	.	.	.	2dd\	.
=113	=113	=113	=113	=113	=113	=113	=113	=113	=113
2A\	.	2c\	.	2r	.	0r	.	1ee	.
2AA/	-bis	1A	.	2c	do-	.	.	.	.
1BB	pa-	.	.	2d	.	.	.	1dd	-na
.	.	2G/	.	2d	-na	.	.	.	.
=114	=114	=114	=114	=114	=114	=114	=114	=114	=114
1AA	-cem,	1A	-na	1a	no-	0r	.	2r	.
.	.	.	.	.	.	.	.	2cc\	no-
1r	.	2.G/	no-	1b-	.	.	.	2.dd\	.
.	.	4F/	.	.	.	.	.	4ee\	.
=115	=115	=115	=115	=115	=115	=115	=115	=115	=115
2r	.	2D/	.	1a	-bis,	0r	.	2ff\	.
2AA/	no-	2A/	.	.	.	.	.	2ee\	.
2BB/	.	2D/	.	2r	.	.	.	2dd\	.
2AA/	-bis	[2A/	.	2c	do-	.	.	[2ee\	.
=116	=116	=116	=116	=116	=116	=116	=116	=116	=116
1BB	pa-	2A/]	.	2d	.	0r	.	4ee\]	.
.	.	.	.	.	.	.	.	4dd\	.
.	.	2D/	.	2d	-na	.	.	1dd	.
1AA	-cem,	2F/	.	1a	no-	.	.	.	.
.	.	2E/	.	.	.	.	.	2cc#i\	.
=117	=117	=117	=117	=117	=117	=117	=117	=117	=117
*rscale:2	*	*	*	*	*	*	*	*	*
*M2/1	*	*	*	*	*	*	*	*	*
*met(2)	*	*	*	*	*	*	*	*	*
2r	.	1G	-bis	1b-	.	0r	.	1dd	-bis,
2GG	do-	.	.	.	.	.	.	.	.
2AA	.	1r	.	2a	-bis,	.	.	1cc	do-
2AA	-na	.	.	2A	do-	.	.	.	.
=118	=118	=118	=118	=118	=118	=118	=118	=118	=118
*	*	*rscale:2	*	*	*	*	*	*	*
*	*	*M2/1	*	*	*	*	*	*	*
*	*	*met(2)	*	*	*	*	*	*	*
1E	no-	1G	do-	2B	.	0r	.	2b\	-na
.	.	.	.	2e	.	.	.	2.cc\	no-
1F	.	2A	.	2c	.	.	.	.	.
.	.	.	.	.	.	.	.	4b\	.
.	.	2A	-na	2d	.	.	.	2a/	.
=119	=119	=119	=119	=119	=119	=119	=119	=119	=119
2E	-bis,	1e	no-	2B	-na	0r	.	1g	-bis
2C	do-	.	.	1e	no-	.	.	.	.
2D	.	1f	.	.	.	.	.	2r	.
2D	-na	.	.	2d	.	.	.	2dd\	pa-
=120	=120	=120	=120	=120	=120	=120	=120	=120	=120
1A	no-	1e	-bis,	2e	.	0r	.	2cc\	.
.	.	.	.	2c	.	.	.	1a	.
1B-i	.	2r	.	2d	.	.	.	.	.
.	.	2E	do-	2e	.	.	.	2g/	.
=121	=121	=121	=121	=121	=121	=121	=121	=121	=121
1A	-bis,	2F	.	2c	-bs	0r	.	2a/	.
.	.	2F	-na	2.A	pa-	.	.	2.cc\	.
2r	.	1c	no-	.	.	.	.	.	.
.	.	.	.	4G/	.	.	.	4bni\	.
2AA	do-	.	.	2A	.	.	.	4a/	.
.	.	.	.	.	.	.	.	4g/	.
=122	=122	=122	=122	=122	=122	=122	=122	=122	=122
2BB-	.	1d	.	2D	.	0r	.	2f/	.
2BB-	-na	.	.	1B-	.	.	.	2.g/	.
1F	no-	1c	-bis	.	.	.	.	.	.
.	.	.	.	.	.	.	.	4f/	.
.	.	.	.	2A	.	.	.	[2f/	.
=123	=123	=123	=123	=123	=123	=123	=123	=123	=123
1G	.	2r	.	2B-i	.	0r	.	2f/]	.
.	.	2C	do-	2c	.	.	.	2e/	.
1F	-bis,	2D	.	2A	.	.	.	2f/	-cem,
.	.	2D	-na	2F	.	.	.	[2a/	pa-
=124	=124	=124	=124	=124	=124	=124	=124	=124	=124
2r	.	1A	no-	1c	-cem,	0r	.	4a/]	.
.	.	.	.	.	.	.	.	4g/	.
2FF	do-	.	.	.	.	.	.	4f/	.
.	.	.	.	.	.	.	.	4e/	.
2GG	.	1B	.	2r	.	.	.	2d/	.
2GG	-na	.	.	2G	do-	.	.	2g/	.
=125	=125	=125	=125	=125	=125	=125	=125	=125	=125
1D	no-	1A	-bis,	2A	.	0r	.	2f/	.
.	.	.	.	2A	-na	.	.	2a/	.
1E	.	2r	.	1e	no-	.	.	3g/V	.
.	.	.	.	.	.	.	.	3e/	.
.	.	2C	do-	.	.	.	.	.	.
.	.	.	.	.	.	.	.	3g/Z	.
=126	=126	=126	=126	=126	=126	=126	=126	=126	=126
1D	-bis,	2D	.	1f	.	0r	.	3.f/V	.
.	.	2D	-na	.	.	.	.	6e/	.
.	.	.	.	.	.	.	.	3d/Z	.
2r	.	1A	no-	1e	-bis,	.	.	1c	-cem,
2AA	do-	.	.	.	.	.	.	.	.
=127	=127	=127	=127	=127	=127	=127	=127	=127	=127
1E	-na	1B	.	2r	.	0r	.	1g	pa-
.	.	.	.	2G	no-	.	.	.	.
1F	no-	1A	-bis,	2A	.	.	.	2f/	.
.	.	.	.	2A	-bis,	.	.	2a/	.
=128	=128	=128	=128	=128	=128	=128	=128	=128	=128
2E	-bis	2r	.	1e	pa-	0r	.	2g/	.
2G	pa-	2C	do-	.	.	.	.	1e	.
2F	.	2D	.	1f	.	.	.	.	.
[2A	.	2D	-na	.	.	.	.	2d/	.
=129	=129	=129	=129	=129	=129	=129	=129	=129	=129
2A]	.	1A	no-	[0el	-cem.	0r	.	2e/	.
2AA	.	.	.	.	.	.	.	1a	.
1E	-cem,	1B	.	.	.	.	.	.	.
.	.	.	.	.	.	.	.	2g/	.
=130	=130	=130	=130	=130	=130	=130	=130	=130	=130
2r	.	2A	-bis,	0e_	.	0r	.	2a/	-cem,
2E	do-	2B	do-	.	.	.	.	2g/	do-
1A	-na	1c	-na	.	.	.	.	2a/	-na
.	.	.	.	.	.	.	.	[2cc\	no-
=131	=131	=131	=131	=131	=131	=131	=131	=131	=131
2r	.	2r	.	0e_	.	0r	.	4cc\]	.
.	.	.	.	.	.	.	.	4b\	.
2E	no-	2B	no-	.	.	.	.	2g/	.
2A	.	2c	.	.	.	.	.	2a/	.
2G	-bis	2B	.	.	.	.	.	2b\	.
=132	=132	=132	=132	=132	=132	=132	=132	=132	=132
1A	pa-	2c	.	0e_	.	0r	.	2e/	-bis
.	.	2A	-bis	.	.	.	.	1a	pa-
1E	.	1B	pa-	.	.	.	.	.	.
.	.	.	.	.	.	.	.	2g#i/	.
=133	=133	=133	=133	=133	=133	=133	=133	=133	=133
0AAl	-cem.	0Al	-cem.	0e]	.	0r	.	0al	-cem.
*rscale:1	*	*rscale:1	*	*rscale:1	*	*	*	*	*
==	==	==	==	==	==	==	==	==	==
*-	*-	*-	*-	*-	*-	*-	*-	*-	*-
!!!RDF**kern: l=long note in original notation
!!!RDF**kern: i=editorial accidental
!!!RDF**kern: V=start of tuplet marker
!!!RDF**kern: Z=end of tuplet marker
!!!ENC: Jesse Rodin 2011/04/12
!!!SMS: JenaU 32
!!!END: 2011/04/12/
!!!EED: Jesse Rodin
!!!EEV: 2013/10/25/
!!attribution-level@Jos: 1 (secure, core group [checkmark])
!!!ONB: Translated from MusicXML and edited on 2011/04/16/ by Craig Sapp
!!muse2ps: T^@{OPR}^u^@{ONM}{. }@{OTL}^C^@{COM}\n@{SCT}^i2I150v90,90,90,90,120c125z18l2700t130
